icons/evolvere-blue-folders-flat-vivid-dark-fallback/apps/64/chromium.svg

<svg xmlns="http://www.w3.org/2000/svg" viewBox="0 0 64 64"><defs><radialGradient id="0" gradientUnits="userSpaceOnUse" gradientTransform="matrix(0 2.13699-2.11307 0 76.856-43.939)" cx="28.447" cy="21.548" r="22.06"><stop stop-color="#5d9be0"/><stop offset="1" stop-color="#487fc0"/></radialGradient></defs><g color="#000"><path d="m0 4v30 28l2 2h30 30l2-2v-28-30h-32-32" fill="#608ec1"/><path d="m2 0l-2 1v3 2.563l19.875 34.438 12.13-15 .844-.094-.844-5.906h32v-16-3l-2-1h-30-30" fill="#2980de"/><path d="m0 6.563v27.438 28l2 2h28.844l13.281-23-13.844-12.875-10.406 12.875-19.875-34.438" fill="url(#0)"/><path d="m0 6.563v27.438 28l2 2h28.844l13.281-23-13.844-12.875-10.406 12.875-19.875-34.438" fill="#2b87f6"/><path d="m2 0l-2 1v3h32 32v-3l-2-1h-30-30" fill="#608ec1"/><path d="m32 20l1.594 11.219 10.531 9.781-13.281 23h1.156 30l2-2v-28-14h-32" fill="#66afff"/><path d="m2 0l-2 1v3h32 32v-3l-2-1h-30-30" fill="#4dadff"/><path d="m4 34a4 4 0 1 1 -8 0 4 4 0 1 1 8 0" transform="matrix(3.5 0 0 3.5 32-85)" fill="#deeff6"/></g><path d="m0 3v3l2-2" fill="#76c0ff"/><path transform="matrix(3 0 0 3 32-68)" d="m4 34a4 4 0 1 1 -8 0 4 4 0 1 1 8 0" fill="#338ff4" color="#000"/><path d="m64 6l-2-2 2-1z" fill="#3a95ee"/></svg>

<?xml version="1.0" encoding="UTF-8" standalone="no"?>
<!-- Created with Inkscape (http://www.inkscape.org/) -->

<svg
   xmlns:dc="http://purl.org/dc/elements/1.1/"
   xmlns:cc="http://creativecommons.org/ns#"
   xmlns:rdf="http://www.w3.org/1999/02/22-rdf-syntax-ns#"
   xmlns:svg="http://www.w3.org/2000/svg"
   xmlns="http://www.w3.org/2000/svg"
   xmlns:xlink="http://www.w3.org/1999/xlink"
   xmlns:sodipodi="http://sodipodi.sourceforge.net/DTD/sodipodi-0.dtd"
   xmlns:inkscape="http://www.inkscape.org/namespaces/inkscape"
   width="64"
   height="64"
   id="svg13094"
   version="1.1"
   inkscape:version="0.91+devel r"
   sodipodi:docname="chromium.svg">
  <sodipodi:namedview
     id="base"
     pagecolor="#ffffff"
     bordercolor="#666666"
     borderopacity="1.0"
     inkscape:pageopacity="0"
     inkscape:pageshadow="2"
     inkscape:zoom="11.313709"
     inkscape:cx="12.673111"
     inkscape:cy="32.706964"
     inkscape:document-units="px"
     inkscape:current-layer="svg13094"
     showgrid="true"
     inkscape:snap-bbox="true"
     inkscape:bbox-paths="true"
     inkscape:bbox-nodes="true"
     inkscape:snap-bbox-edge-midpoints="true"
     inkscape:snap-bbox-midpoints="true"
     inkscape:object-paths="true"
     inkscape:snap-intersection-paths="true"
     inkscape:object-nodes="true"
     inkscape:snap-smooth-nodes="true"
     inkscape:snap-midpoints="true"
     inkscape:snap-object-midpoints="true"
     inkscape:snap-center="true"
     showguides="false"
     inkscape:guide-bbox="true"
     inkscape:window-width="1920"
     inkscape:window-height="1023"
     inkscape:window-x="-10"
     inkscape:window-y="35"
     inkscape:window-maximized="1"
     inkscape:snap-global="true"
     fit-margin-top="0"
     fit-margin-left="0"
     fit-margin-right="0"
     fit-margin-bottom="0"
     showborder="true"
     inkscape:showpageshadow="false"
     inkscape:snap-page="true">
    <inkscape:grid
       type="xygrid"
       id="grid3075"
       empspacing="5"
       visible="true"
       enabled="true"
       snapvisiblegridlinesonly="true"
       originx="1.6362304e-08px"
       originy="18px" />
    <sodipodi:guide
       orientation="0,1"
       position="-11,30"
       id="guide9148" />
    <sodipodi:guide
       orientation="1,0"
       position="32,70"
       id="guide9150" />
  </sodipodi:namedview>
  <defs
     id="defs13096">
    <linearGradient
       id="linearGradient3794">
      <stop
         offset="0"
         style="stop-color:#5d9be0;stop-opacity:1;"
         id="stop3796" />
      <stop
         offset="1"
         style="stop-color:#487fc0;stop-opacity:1;"
         id="stop3798" />
    </linearGradient>
    <radialGradient
       inkscape:collect="always"
       xlink:href="#linearGradient3794"
       id="radialGradient4417"
       gradientUnits="userSpaceOnUse"
       gradientTransform="matrix(9.6798652e-8,2.1369898,-2.1130718,6.766435e-8,76.85566,-43.939033)"
       cx="28.447348"
       cy="21.547987"
       fx="28.447348"
       fy="21.547987"
       r="22.0625" />
  </defs>
  <metadata
     id="metadata13099">
    <rdf:RDF>
      <cc:Work
         rdf:about="">
        <dc:format>image/svg+xml</dc:format>
        <dc:type
           rdf:resource="http://purl.org/dc/dcmitype/StillImage" />
        <dc:title></dc:title>
      </cc:Work>
    </rdf:RDF>
  </metadata>
  <path
     id="path6538"
     d="m 0,4 0,30 0,28 2,2 30,0 30,0 2,-2 L 64,34 64,4 32,4 0,4 z"
     style="color:#000000;fill:#608ec1;fill-opacity:1;fill-rule:nonzero;stroke:none;stroke-width:2.28571415000000000;marker:none;visibility:visible;display:inline;overflow:visible;enable-background:accumulate"
     inkscape:connector-curvature="0" />
  <path
     style="color:#000000;fill:#2980de;fill-opacity:1;fill-rule:nonzero;stroke:none;stroke-width:2.28571415;marker:none;visibility:visible;display:inline;overflow:visible;enable-background:accumulate"
     d="M 2 0 L 0 1 L 0 4 L 0 6.5625 L 19.875 41 L 32 26 L 32.84375 25.90625 L 32 20 L 64 20 L 64 4 L 64 1 L 62 0 L 32 0 L 2 0 z "
     id="path4391" />
  <path
     id="path4415"
     d="M 0,6.5625 0,34 0,62 2,64 30.84375,64 44.125,41 30.28125,28.125 19.875,41 0,6.5625 z"
     style="color:#000000;fill:url(#radialGradient4417);fill-opacity:1;fill-rule:nonzero;stroke:none;stroke-width:2.28571415;marker:none;visibility:visible;display:inline;overflow:visible;enable-background:accumulate"
     inkscape:connector-curvature="0" />
  <path
     style="color:#000000;fill:#2b87f6;fill-opacity:1;fill-rule:nonzero;stroke:none;stroke-width:2.28571415;marker:none;visibility:visible;display:inline;overflow:visible;enable-background:accumulate"
     d="M 0 6.5625 L 0 34 L 0 62 L 2 64 L 30.84375 64 L 44.125 41 L 30.28125 28.125 L 19.875 41 L 0 6.5625 z "
     id="path4395" />
  <path
     inkscape:connector-curvature="0"
     style="color:#000000;fill:#608ec1;fill-opacity:1;fill-rule:nonzero;stroke:none;marker:none;visibility:visible;display:inline;overflow:visible;enable-background:accumulate"
     d="M 2,0 0,1 0,4 32,4 64,4 64,1 62,0 32,0 2,0 z"
     id="path6688" />
  <g
     id="g3043"
     inkscape:export-filename="folder.png"
     inkscape:export-xdpi="90"
     inkscape:export-ydpi="90"
     transform="translate(-0.62500009,0.082283)" />
  <g
     id="scalable"
     transform="matrix(1.0385892,0,0,1.0385892,1214.7222,1878.8121)"
     inkscape:label="#g3701"
     style="fill:#ffffff" />
  <path
     inkscape:connector-curvature="0"
     style="color:#000000;fill:#66afff;fill-opacity:1;fill-rule:nonzero;stroke:none;stroke-width:2.28571415;marker:none;visibility:visible;display:inline;overflow:visible;enable-background:accumulate"
     d="M 32,20 33.59375,31.21875 44.125,41 30.84375,64 32,64 l 30,0 2,-2 0,-28 0,-14 -32,0 z"
     id="path4421" />
  <path
     style="fill:#4dadff;stroke:none;stroke-width:2.28571415;stroke-linecap:butt;stroke-linejoin:miter;stroke-opacity:1;color:#000000;fill-opacity:1;fill-rule:nonzero;marker:none;visibility:visible;display:inline;overflow:visible;enable-background:accumulate"
     d="M 2 0 L 0 1 L 0 4 L 32 4 L 64 4 L 64 1 L 62 0 L 32 0 L 2 0 z "
     id="path6521" />
  <path
     sodipodi:type="arc"
     style="color:#000000;fill:#deeff6;fill-opacity:1;fill-rule:nonzero;stroke:none;stroke-width:0.65306121;marker:none;visibility:visible;display:inline;overflow:visible;enable-background:accumulate"
     id="path6736"
     sodipodi:cx="1.6362304e-08"
     sodipodi:cy="34"
     sodipodi:rx="4"
     sodipodi:ry="4"
     d="m 4,34 a 4,4 0 1 1 -8,0 4,4 0 1 1 8,0 z"
     transform="matrix(3.5,0,0,3.5,32,-85)" />
  <path
     style="fill:#76c0ff;fill-opacity:1;fill-rule:nonzero"
     d="M 0,3 0,6 2,4 Z"
     id="path4298"
     inkscape:connector-curvature="0"
     sodipodi:nodetypes="cccc" />
  <path
     transform="matrix(3,0,0,3,32,-68)"
     d="m 4,34 a 4,4 0 1 1 -8,0 4,4 0 1 1 8,0 z"
     sodipodi:ry="4"
     sodipodi:rx="4"
     sodipodi:cy="34"
     sodipodi:cx="1.6362304e-08"
     id="path9218"
     style="color:#000000;fill:#338ff4;fill-opacity:1;fill-rule:nonzero;stroke:none;stroke-width:0.65306121;marker:none;visibility:visible;display:inline;overflow:visible;enable-background:accumulate"
     sodipodi:type="arc" />
  <path
     d="M 64,6 62,4 64,3 z"
     id="path3028"
     style="fill:#3a95ee;fill-opacity:1"
     inkscape:connector-curvature="0" />
</svg>
